!!!ONB: MCCC : IJB0063_06 : Extracted Monophonic Melody
!!!COM: Bach, Johann Sebastian
!!!OPR: Cello Suite No.1
!!!OMV: 6
!!!SCT: BWV 1007
!!!ODT: 1717///
**kern
*thru
*staff1
*clefF4
*k[b-e-]
*g:
*M3/4
*>A
=1-
8B-
8A
8B-
8D
8E-
8GG
=2
4FF
4A
4D
=3
8G
8F#
8G
8BB-
8C
8EE-
=4
8DD
8AA
8D
8G
8F#
8A
=5
8B-
8A
8B-
8D
8E-
8GG
=6
4FF
4A
4D
=7
8G
8F#
8G
8BB-
8C
8EE
=8
8DD
8G
2F#
=9
*>A
=1-
8B-
8A
8B-
8D
8E-
8GG
=2
4FF
4A
4D
=3
8G
8F#
8G
8BB-
8C
8EE-
=4
8DD
8AA
8D
8G
8F#
8A
=5
8B-
8A
8B-
8D
8E-
8GG
=6
4FF
4A
4D
=7
8G
8F#
8G
8BB-
8C
8EE
=8
8DD
8G
2F#
=9
*>B
8D
8F#
8A
8c
8e-
8d
=10
8c
8B-
8A
8B-
4G
=11
8C
8E
8G
8B-
8d
8c
=12
8B-
8A
8G
8A
8F
8E-
=13
8D
8F
8B-
8A
8B-
8D
=14
8E-
8G
8B-
8A
8B-
8d
=15
8c
8e-
8d
8B-
8F
8A
=16
8B-
8F
8D
8F
4BB-
=17
8BB
8D
8F
8A-
8G
8F
=18
8E-
8G
8c
8d
4e-
=19
8AA
8C
8E-
8G
8F
8E-
=20
8D
8F
8B-
8c
4d
=21
8FF#
8AA
8C
8E-
8D
8C
=22
8BB-
8D
8G
8A
8B-
8G
=23
8C
8B-
8A
8G
8D
8F#
=24
2.GG
==
*>B
8D
8F#
8A
8c
8e-
8d
=10
8c
8B-
8A
8B-
4G
=11
8C
8E
8G
8B-
8d
8c
=12
8B-
8A
8G
8A
8F
8E-
=13
8D
8F
8B-
8A
8B-
8D
=14
8E-
8G
8B-
8A
8B-
8d
=15
8c
8e-
8d
8B-
8F
8A
=16
8B-
8F
8D
8F
4BB-
=17
8BB
8D
8F
8A-
8G
8F
=18
8E-
8G
8c
8d
4e-
=19
8AA
8C
8E-
8G
8F
8E-
=20
8D
8F
8B-
8c
4d
=21
8FF#
8AA
8C
8E-
8D
8C
=22
8BB-
8D
8G
8A
8B-
8G
=23
8C
8B-
8A
8G
8D
8F#
=24
2.GG
==
*-
